X: 17686
T: Hollybank, The
R: hornpipe
M: 4/4
K: Gmajor
|:(3edc|B>^AB>d c>DF>A|(3GFG B>d g>dB>d|e>Gc>e d>G (3Bcd|(3cdc (3BcB A>d^c>d|
B2 B>d (3cdc (3DEF|G>D (3Bcd g>dB>d|e2 c>e d>gf>e|(3ded (3cBA G2:|
|:(3Bcd|(3gag f>g d>GB>d|(3efe ^d>e g>Gc>e|d2 ^c>d g>GB>d|(3cdc B>c A>de>f|
g2 f>g d2 (3Bcd|(3efe ^d>e g2 c>e|d>gd>B c>g (3gfe|(3ded c>F G2:|

